X: 1
T:Unknown
L:1/8
M:9/8
K:C
V:1
A2 B cAB GDE |\
A2 B c[ce]d
B2 E |\
A2 B cAB GDE |\
AGE DB,E A,2 A ::
V:2
L:1/8
M:9/8
K:C
cED ECE D2 B |\
cEG FEG -G2 B |\
A3 G3 B3 |\
c3 B3 A3 ::
V:3
L:1/8
M:9/8
K:C
C,,3 ^X3 =X3 |\
^X3 =X3 X3 |\
